X: 229
T:Magnificat Tertii toni / Quia fecit / Fecit potentiam / Esurientes
N: Derived from Jos2002-Magnificat_Tertii_toni.krn
C: Josquin des Prez
%%abc-version 2.0
%%abcx-abcm2ps-target-version 5.9.1 (29 Sep 2008)
%%abc-creator hum2abc beta
%%abcx-conversion-date 2019/02/12 16:15:50
%%abc-edited-by Jesse Rodin
%%abc-edited-by Joel Chapman 2012/1/17
%%abcx-initial-encoding-date 2012/01/17/
%%humdrum-veritas 1476046226
%%humdrum-veritas-data 98608532
%%linebreak <none>
%%barnumbers 0
L: 1/4
M: 3/1
Q: 1/2=120
%%staves [1 2 3 4]
V: 1 clef=treble
V: 2 clef=treble-8
V: 3 clef=treble-8
V: 4 clef=bass
K: C
[V:1] z12 | 
[V:2] z12 | 
[V:3] E6F2G4 | 
[V:4] E,6D,2E,4 | 
[V:1] z12 | 
[V:2] z12 | 
[V:3] A4G2c4B2 | 
[V:4] F,4E,2C,2D,4 | 
[V:1] E6F2G4 | 
[V:2] e6d2e4 | 
[V:3] c4z4c4- | 
[V:4] C,6F,2E,2C,2 | 
[V:1] A4G2c4B2 | 
[V:2] f4g2f2g4 | 
[V:3] c2d2e2c2d4 | 
[V:4] F,4E,2A,2G,4 | 
[V:1] c3BA2G2E4 | 
[V:2] g2f4e2g3f/e/ | 
[V:3] c8c3B | 
[V:4] C,2F,3E,C,6 | 
[V:1] F2G3FE4D2 | 
[V:2] d2B2c2B2A2B2 | 
[V:3] A2G2E4F4 | 
[V:4] D,2E,2C,2G,2A,2F,2 | 
[V:1] E4z4G4 | 
[V:2] c4d2e3dc2- | 
[V:3] E4F2G3FE2 | 
[V:4] G,3F,/E,/D,2C,4G,2- | 
[V:1] A2F2E3FG2A2- | 
[V:2] c2B2c3de2f2- | 
[V:3] D4C4z4 | 
[V:4] G,2F,2G,4C,2F,2- | 
[V:1] A2G2A2B2G2c2 | 
[V:2] f2e2f2d2e4 | 
[V:3] c6B2c4 | 
[V:4] F,E,/D,/C,2F,2G,2C,4 | 
[V:1] B2A2c4B2c2 | 
[V:2] f4g6ef | 
[V:3] d4e4d2c2 | 
[V:4] z4C,4G,2A,2 | 
[V:1] d2e3dc4B2 | 
[V:2] d2c2e2f2g4 | 
[V:3] B2A2c4d4 | 
[V:4] G,2C3B,A,2G,4 | 
[V:1] !fermata!c16 | 
[V:2] !fermata!e16 | 
[V:3] !fermata!c16 | 
[V:4] C,16 & !fermata!G,16 | 
[V:1] c6B2A4 | 
[V:2] e8f4 | 
[V:3] z12 | 
[V:4] z12 | 
[V:1] G2F4E2D4 | 
[V:2] e2d3cc4B2 | 
[V:3] z12 | 
[V:4] z4D,2E,2F,2G,2 | 
[V:1] C4z2G2A2F2 | 
[V:2] c4z4c4 | 
[V:3] e8f4 | 
[V:4] C,2C4B,2A,4 | 
[V:1] zGA2F2zGA2F2 | 
[V:2] B2A3GG4F2 | 
[V:3] e2d4c4B2 | 
[V:4] G,2F,4E,2D,4 | 
[V:1] E3FG2A2B2c2- | 
[V:2] G4z4z2g2- | 
[V:3] c8d2e2- | 
[V:4] C,3D,E,2F,2D,2C,2- | 
[V:1] cBA4^G2A4 | 
[V:2] g2f2e4c4 | 
[V:3] e2dcB4A4- | 
[V:4] C,2D,2E,4F,4- | 
[V:1] z2A2G3AB2c2 | 
[V:2] d4e8 | 
[V:3] A4B4G2c2 | 
[V:4] F,4E,6C,2 | 
[V:1] d2e3dc4B2 | 
[V:2] f2g4fed4 | 
[V:3] A2B2c4G4 | 
[V:4] F,2E,2C,4z2G,2 | 
[V:1] c4z4c4 | 
[V:2] c3de4e4 | 
[V:3] z4c4c4 | 
[V:4] C,8z4 | 
[V:1] c4A4c4 | 
[V:2] f4f3e/d/c4 | 
[V:3] A4c4A3B | 
[V:4] F,6F,2F,4- | 
[V:1] A4B4A3B | 
[V:2] z2f2d2e2f4 | 
[V:3] c2d4B2c2d2 | 
[V:4] F,2D,2G,4F,4 | 
[V:1] c2B3AA4^G2 | 
[V:2] g2g3fd2e4 | 
[V:3] e2d3cA2B4 | 
[V:4] C,2G,3A,F,2E,4 | 
[V:1] A12 ||  
[V:2] e12 ||  
[V:3] A12 ||  
[V:4] A,,12 ||  
[V:1]  [K:C] [K:clef=treble][M:2/1]E6F2 | 
[V:2]  [K:C] [K:clef=treble-8][M:2/1]z8 | 
[V:3]  [K:C] [K:clef=treble-8][M:2/1]z8 | 
[V:4]  [K:C] [K:clef=bass][M:2/1]z8 | 
[V:1] G4A4 | 
[V:2] z8 | 
[V:3] z8 | 
[V:4] z8 | 
[V:1] B4c4 | 
[V:2] E6F2 | 
[V:3] z8 | 
[V:4] z8 | 
[V:1] B2G4FE | 
[V:2] G4A4 | 
[V:3] z8 | 
[V:4] z8 | 
[V:1] D4C4 | 
[V:2] B4c4 | 
[V:3] z8 | 
[V:4] z8 | 
[V:1] z2D2E2G2 | 
[V:2] B2G4FE | 
[V:3] z8 | 
[V:4] z8 | 
[V:1] F2A4G2 | 
[V:2] D4C4 | 
[V:3] z8 | 
[V:4] z8 | 
[V:1] F4E4 | 
[V:2] z2D2E2G2 | 
[V:3] z8 | 
[V:4] z8 | 
[V:1] D2F3EE2- | 
[V:2] F2A4G2 | 
[V:3] z8 | 
[V:4] z8 | 
[V:1] E2D2E4 | 
[V:2] F4E4- | 
[V:3] z8 | 
[V:4] z8 | 
[V:1] z4G4 | 
[V:2] E4z4 | 
[V:3] z8 | 
[V:4] z8 | 
[V:1] A4G4 | 
[V:2] z4G4 | 
[V:3] z8 | 
[V:4] z8 | 
[V:1] c4B2G2- | 
[V:2] A4G4 | 
[V:3] z8 | 
[V:4] z8 | 
[V:1] G2FED4 | 
[V:2] c4B2G2- | 
[V:3] z8 | 
[V:4] z8 | 
[V:1] E4F4 | 
[V:2] G2FED4 | 
[V:3] z8 | 
[V:4] z8 | 
[V:1] z2G2A2c2 | 
[V:2] E4F4 | 
[V:3] z8 | 
[V:4] z8 | 
[V:1] B4A4 | 
[V:2] z2G2A2c2 | 
[V:3] z8 | 
[V:4] z8 | 
[V:1] z2G2A2F2 | 
[V:2] B4A4 | 
[V:3] z8 | 
[V:4] z8 | 
[V:1] G4z2A2 | 
[V:2] z2G2A2F2 | 
[V:3] z8 | 
[V:4] z8 | 
[V:1] B2G2A2c2 | 
[V:2] G4z2A2 | 
[V:3] z8 | 
[V:4] z8 | 
[V:1] B4E4 | 
[V:2] B2G2A2c2 | 
[V:3] z8 | 
[V:4] z8 | 
[V:1] z2D2E2C2 | 
[V:2] BAGFE4 | 
[V:3] z8 | 
[V:4] z8 | 
[V:1] D2F2G2A2 | 
[V:2] z2D2E2C2 | 
[V:3] z8 | 
[V:4] z8 | 
[V:1] B2c2A2B2- | 
[V:2] D2E2F2G2 | 
[V:3] z8 | 
[V:4] z8 | 
[V:1] B2A4^G2 | 
[V:2] A2c2B4 | 
[V:3] z8 | 
[V:4] z8 | 
[V:1] A4F2G2- | 
[V:2] A2c2d2e2- | 
[V:3] z8 | 
[V:4] z8 | 
[V:1] G2FED4 | 
[V:2] e2dcB4 | 
[V:3] z8 | 
[V:4] z8 | 
[V:1] !fermata!C16 | 
[V:2] !fermata!c16 | 
[V:3] z16 | 
[V:4] z16 | 
[V:1] c6BA | 
[V:2] z8 | 
[V:3] z8 | 
[V:4] z8 | 
[V:1] G2A4GF | 
[V:2] z8 | 
[V:3] z8 | 
[V:4] z8 | 
[V:1] E4z2D2 | 
[V:2] c6BA | 
[V:3] z8 | 
[V:4] z8 | 
[V:1] E2C2E2F2 | 
[V:2] G2A4GF | 
[V:3] z8 | 
[V:4] z8 | 
[V:1] G4A4 | 
[V:2] E4z2D2 | 
[V:3] z8 | 
[V:4] z8 | 
[V:1] G4z2A2 | 
[V:2] E2C2E2F2 | 
[V:3] z8 | 
[V:4] z8 | 
[V:1] B2G2B2c2 | 
[V:2] G4z2A2 | 
[V:3] z8 | 
[V:4] z8 | 
[V:1] d6cB | 
[V:2] B2G2B2c2 | 
[V:3] z8 | 
[V:4] z8 | 
[V:1] A4z2d2 | 
[V:2] d6cB | 
[V:3] z8 | 
[V:4] z8 | 
[V:1] c2A2BAGF | 
[V:2] A4z2d2 | 
[V:3] z8 | 
[V:4] z8 | 
[V:1] E4z4 | 
[V:2] c2A2BAGF | 
[V:3] z8 | 
[V:4] z8 | 
[V:1] G4A4 | 
[V:2] E4z4 | 
[V:3] z8 | 
[V:4] z8 | 
[V:1] B2G4F2 | 
[V:2] G4A4 | 
[V:3] z8 | 
[V:4] z8 | 
[V:1] G4A4 | 
[V:2] B2c4BA | 
[V:3] z8 | 
[V:4] z8 | 
[V:1] B2c4BA | 
[V:2] G2A2F4 | 
[V:3] z8 | 
[V:4] z8 | 
[V:1] G4z4 | 
[V:2] E2e2c2d2- | 
[V:3] z8 | 
[V:4] z8 | 
[V:1] B4c4 | 
[V:2] d2cBA4 | 
[V:3] z8 | 
[V:4] z8 | 
[V:1] d2e4dc | 
[V:2] G4z2c2 | 
[V:3] z8 | 
[V:4] z8 | 
[V:1] B4A2d2- | 
[V:2] d2e2f4 | 
[V:3] z8 | 
[V:4] z8 | 
[V:1] dcc4B2 | 
[V:2] e2c2d4 | 
[V:3] z8 | 
[V:4] z8 | 
[V:1] c4z4 | 
[V:2] z2c2A2c2- | 
[V:3] z8 | 
[V:4] z8 | 
[V:1] c4A2c2- | 
[V:2] cde2f2e2- | 
[V:3] z8 | 
[V:4] z8 | 
[V:1] c2BAB2A2- | 
[V:2] e2dcd2c2 | 
[V:3] z8 | 
[V:4] z8 | 
[V:1] A2GFE3F | 
[V:2] A2B2c3d | 
[V:3] z8 | 
[V:4] z8 | 
[V:1] G2ABc2B2- | 
[V:2] e3decd2- | 
[V:3] z8 | 
[V:4] z8 | 
[V:1] BAA4^G2 | 
[V:2] dcA2B4 | 
[V:3] z8 | 
[V:4] z8 | 
[V:1] A8 ||  
[V:2] A8 ||  
[V:3] z8 ||  
[V:4] z8 ||  
[V:1]  [K:C] [K:clef=treble][M:3/1]A3G/F/E2A2G2F2- | 
[V:2]  [K:C] [K:clef=treble-8][M:3/1]z12 | 
[V:3]  [K:C] [K:clef=treble-8][M:3/1]A4A3G/F/E2A2- | 
[V:4]  [K:C] [K:clef=bass][M:3/1]z12 | 
[V:1] FEE4D2E3F | 
[V:2] z12 | 
[V:3] A2G2F4E4 | 
[V:4] z4z4B,4 | 
[V:1] GCG3FED/C/D2C2 | 
[V:2] e3d/c/B2c2B2e2- | 
[V:3] z12 | 
[V:4] E,3F,G,2A,2B,2C2- | 
[V:1] z4E4D2G2- | 
[V:2] e2d2c4B4 | 
[V:3] z12 | 
[V:4] CB,B,4A,2B,4 | 
[V:1] G2G2G8 | 
[V:2] E4z2e2d2e2 | 
[V:3] B4B4B2c2- | 
[V:4] z4E,3F,G,2C,2 | 
[V:1] A4B6c2- | 
[V:2] c4z2e2d2e2 | 
[V:3] c2BAG4z4 | 
[V:4] F,4E,3F,G,2C,2 | 
[V:1] c2BAG4z4 | 
[V:2] c3de4e4 | 
[V:3] A4B4c4- | 
[V:4] F,4E,4A,3G, | 
[V:1] A4B4c4- | 
[V:2] z2f2d3ef4 | 
[V:3] c2d4cBA4 | 
[V:4] F,2D,2G,4F,3G, | 
[V:1] c2d4cBA4 | 
[V:2] z2f2d2e2f4- | 
[V:3] z4B4c4 | 
[V:4] E,2D,2G,4F,4 | 
[V:1] z4B4c4 | 
[V:2] f4z2g4f2 | 
[V:3] d6e4dc | 
[V:4] z2D,2G,2E,2A,4 | 
[V:1] d2e3dc4B2 | 
[V:2] g12 | 
[V:3] B2c4e2d4 | 
[V:4] G,2C,2C4G,4 | 
[V:1] !fermata!c24 | 
[V:2] !fermata!e24 | 
[V:3] !fermata!c24 | 
[V:4] !fermata!C,24 | 
[V:1] z12 | 
[V:2] e3fg2f2e2f2 | 
[V:3] c4c4B2d2 | 
[V:4] C,3D,E,2F,2G,2D,2 | 
[V:1] z12 | 
[V:2] g2a2d2a4g2- | 
[V:3] c2A2B2c2d2B2 | 
[V:4] E,2F,2G,2F,E,D,2D2- | 
[V:1] c2c2B2d2c2A2 | 
[V:2] g2f2g2d2e2f2 | 
[V:3] A4G4z2c2 | 
[V:4] D2C2D2B,2A,4 | 
[V:1] B2c4B2A4 | 
[V:2] g2f4e4d2 | 
[V:3] d2c3BG2A4 | 
[V:4] G,2A,2E,4F,4 | 
[V:1] G4F2G3FE2 | 
[V:2] e4z4z4 | 
[V:3] B3cd2e3dc2- | 
[V:4] E,4D,2C,3D,E,F, | 
[V:1] D4C4z4 | 
[V:2] g4e4f2g2- | 
[V:3] c2B2c3BA2G2 | 
[V:4] G,4z2C,2D,2E,2 | 
[V:1] z2G2G2G2E3F | 
[V:2] gfe2d4c3d | 
[V:3] c4G4z4 | 
[V:4] C,2C4B,2C4 | 
[V:1] G2A2G2c3BG2 | 
[V:2] e2f2g4e4 | 
[V:3] c8c4 | 
[V:4] C,2F,2E,2C,2z2C,2 | 
[V:1] A2GFE4z2G2 | 
[V:2] z2f2g4e2c2 | 
[V:3] c12- | 
[V:4] F,3E,C,4C3B, | 
[V:1] A2c2B4z2B2 | 
[V:2] e2f2g4z2d2 | 
[V:3] c4d8 | 
[V:4] A,4G,3F,/E,/D,2G,2 | 
[V:1] c2A3Bc2A2B2- | 
[V:2] e2f2z2e2f2g2 | 
[V:3] c4A3Bc2d2 | 
[V:4] C,2F,3G,A,4G,2- | 
[V:1] Bcd2c2B3AA2- | 
[V:2] z2a2g3f/e/d4 | 
[V:3] e2f2e2d3cA2 | 
[V:4] G,F,D,2E,2G,3A,F,2 | 
[V:1] A2^G2A8 ||  
[V:2] e4c8 ||  
[V:3] B4A8 ||  
[V:4] E,4A,,8 ||  
[V:1]  [K:C] [K:clef=treble][M:2/1]E8 | 
[V:2]  [K:C] [K:clef=treble-8][M:2/1]z8 | 
[V:3]  [K:C] [K:clef=treble-8][M:2/1]z8 | 
[V:4]  [K:C] [K:clef=bass][M:2/1]z8 | 
[V:1] F4E4 | 
[V:2] z8 | 
[V:3] z8 | 
[V:4] z8 | 
[V:1] G8 | 
[V:2] z8 | 
[V:3] e8 | 
[V:4] z8 | 
[V:1] A4G2c2- | 
[V:2] z8 | 
[V:3] f4e4 | 
[V:4] z8 | 
[V:1] c2BAB4 | 
[V:2] z8 | 
[V:3] g8 | 
[V:4] z8 | 
[V:1] A2c2BAGF | 
[V:2] z8 | 
[V:3] a4g2e2- | 
[V:4] z8 | 
[V:1] G2A4^G2 | 
[V:2] z8 | 
[V:3] e2dcB4 | 
[V:4] E,8 | 
[V:1] A4G2E2- | 
[V:2] z8 | 
[V:3] ABcdefg2- | 
[V:4] F,4E,4 | 
[V:1] E2DCB,4 | 
[V:2] z8 | 
[V:3] g2fed4 | 
[V:4] G,8 | 
[V:1] A,B,CDEFG2- | 
[V:2] z8 | 
[V:3] c4z4 | 
[V:4] A,6G,2 | 
[V:1] GFE4D2 | 
[V:2] z8 | 
[V:3] g4a4 | 
[V:4] E,4F,4 | 
[V:1] E4z4 | 
[V:2] z8 | 
[V:3] g4e2f2- | 
[V:4] E,4A,4 | 
[V:1] G4A4 | 
[V:2] z8 | 
[V:3] fee4d2 | 
[V:4] G,2E,2F,4 | 
[V:1] G4E2F2- | 
[V:2] z8 | 
[V:3] e2B2c2d2- | 
[V:4] E,2E,4D,2 | 
[V:1] FEE4D2 | 
[V:2] z8 | 
[V:3] dcB2A2B2 | 
[V:4] E,4F,4 | 
[V:1] E8 | 
[V:2] z8 | 
[V:3] G4g4- | 
[V:4] E,4z2E,2- | 
[V:1] z8 | 
[V:2] z8 | 
[V:3] g2f2e2d2 | 
[V:4] E,2D,2E,2F,2 | 
[V:1] z4z2A2 | 
[V:2] z8 | 
[V:3] e3fg2f2- | 
[V:4] G,2E,4D,2 | 
[V:1] G2c4BA | 
[V:2] z8 | 
[V:3] fee4d2 | 
[V:4] E,4F,4 | 
[V:1] G4A4 | 
[V:2] z8 | 
[V:3] e4A4 | 
[V:4] E,4z4 | 
[V:1] G4z4 | 
[V:2] z8 | 
[V:3] z4B4 | 
[V:4] E,4D,2E,2 | 
[V:1] z2D2CDEF | 
[V:2] z8 | 
[V:3] A2B2c2B2 | 
[V:4] F,2G,2A,2E,2- | 
[V:1] GEA4G2 | 
[V:2] z8 | 
[V:3] c2d2B4 | 
[V:4] E,2D,2E,4 | 
[V:1] A2c4BA | 
[V:2] z8 | 
[V:3] A4e4 | 
[V:4] F,4E,4 | 
[V:1] G3ABcd2 | 
[V:2] z8 | 
[V:3] z4z2B2- | 
[V:4] z2E,4D,2 | 
[V:1] G2c2B2E2 | 
[V:2] z8 | 
[V:3] B2A2B2c2 | 
[V:4] E,2F,2G,2A,2 | 
[V:1] D2G2E2A2- | 
[V:2] z8 | 
[V:3] d2e2c2d2 | 
[V:4] B,2E,4D,2 | 
[V:1] A2G2A4 | 
[V:2] z8 | 
[V:3] B4A2c2- | 
[V:4] E,4F,4 | 
[V:1] G2E2F4 | 
[V:2] z8 | 
[V:3] cBe4d2 | 
[V:4] E,4z4 | 
[V:1] E4z4 | 
[V:2] z8 | 
[V:3] e4z2B2 | 
[V:4] E,4D,2E,2 | 
[V:1] z8 | 
[V:2] z8 | 
[V:3] A2B2c2d2 | 
[V:4] F,2G,2A,2B,2 | 
[V:1] z4z2A2 | 
[V:2] z8 | 
[V:3] e3fg2f2- | 
[V:4] C2E,4D,2 | 
[V:1] G2c4BA | 
[V:2] z8 | 
[V:3] fee4d2 | 
[V:4] E,4F,4 | 
[V:1] G8 | 
[V:2] z8 | 
[V:3] e2dcB4 | 
[V:4] E,4z2E,2- | 
[V:1] z8 | 
[V:2] z8 | 
[V:3] z2B4A2 | 
[V:4] E,2D,2E,2F,2 | 
[V:1] e4d2c2 | 
[V:2] z8 | 
[V:3] B2c2d2e2 | 
[V:4] G,2A,2B,2C2 | 
[V:1] A2B2c2d2 | 
[V:2] z8 | 
[V:3] f2g4f2 | 
[V:4] D2E,4D,2 | 
[V:1] G2c3BA2- | 
[V:2] z8 | 
[V:3] e4c2d2 | 
[V:4] E,4F,4 | 
[V:1] A2^G2A2EF | 
[V:2] z8 | 
[V:3] B4ABcd | 
[V:4] E,4z4 | 
[V:1] GABcd2c2- | 
[V:2] z8 | 
[V:3] efg2f2e2 | 
[V:4] E,4D,2E,2 | 
[V:1] c2B2c2BA | 
[V:2] z8 | 
[V:3] d4c2d2 | 
[V:4] F,2G,2A,2B,2 | 
[V:1] G2F2E3F | 
[V:2] z8 | 
[V:3] e2f2g4 | 
[V:4] C2D2E2E,2- | 
[V:1] G2A2G2c2- | 
[V:2] z8 | 
[V:3] e2f4e2- | 
[V:4] E,2D,2E,4 | 
[V:1] c2BAG4 | 
[V:2] z8 | 
[V:3] e2d2e4 | 
[V:4] F,4E,4 | 
[V:1] A2B4c2- | 
[V:2] z8 | 
[V:3] c2d4e2- | 
[V:4] A,2G,4C,2- | 
[V:1] c2A4^G2 | 
[V:2] z8 | 
[V:3] e2dcB4 | 
[V:4] C,2D,2E,4 | 
[V:1] A8 |]  
[V:2] z8 |]  
[V:3] A8 |]  
[V:4] E8 |]  



